X:217
T:Dunkeld Hermitage
R:Reel
C:Niel Gow
B:The Athole Collection
M:C|
L:1/8
K:E Minor
e|E/E/E B2 GEBG|FdAd FDAF|E/E/E B2 GEBG|AFdF E/E/E E:|
g|e/e/e g2 bege|d/d/d fd adfd|e/e/e g2 bege|dBdF E/E/E Eg|
e/e/e g2 bege|d/d/d fd adfd|gbfa efde|AFdF E/E/E E||

